svgs/light/mug-tea.svg

<svg xmlns="http://www.w3.org/2000/svg" viewBox="0 0 576 512"><!-- Font Awesome Pro 6.0.0-alpha2 by @fontawesome - https://fontawesome.com License - https://fontawesome.com/license (Commercial License) --><path d="M464 64H64C46.328 64 32 78.326 32 96V352C32 405.02 74.98 448 128 448H320C373.02 448 416 405.02 416 352V288H464C525.75 288 576 237.75 576 176S525.75 64 464 64ZM384 352C384 387.289 355.291 416 320 416H128C92.711 416 64 387.289 64 352V96H144V140L108.801 166.4C100.742 172.443 96 181.928 96 192V256C96 273.674 110.326 288 128 288H192C209.674 288 224 273.674 224 256V192C224 181.928 219.258 172.443 211.201 166.4L176 140V96H384V352ZM160 168L192 192V256H128V192L160 168ZM464 256H416V96H464C508.125 96 544 131.875 544 176S508.125 256 464 256Z"/></svg>

<svg xmlns="http://www.w3.org/2000/svg" viewBox="0 0 576 512"><!--! Font Awesome Pro 6.0.0-alpha3 by @fontawesome - https://fontawesome.com License - https://fontawesome.com/license (Commercial License) --><path d="M464 64H64C46.33 64 32 78.33 32 96l-.0023 256c0 53.02 42.98 96 96 96h192c53.02 0 96-42.98 96-96L416 288h48C525.8 288 576 237.8 576 176S525.8 64 464 64zM384 352c0 35.29-28.71 64-64 64H128c-35.29 0-64-28.71-64-64V96h80v44L108.8 166.4C100.7 172.4 96 181.9 96 192L95.1 256c0 17.67 14.33 32 32 32h64c17.67 0 32-14.33 32-32L224 192c0-10.07-4.742-19.56-12.8-25.6L176 140V96H384V352zM160 168L192 192v64H128V192L160 168zM464 256h-48L416 96h48C508.1 96 544 131.9 544 176S508.1 256 464 256z"/></svg>
